apps/scalable/mpv.svg

<svg xmlns="http://www.w3.org/2000/svg" style="isolation:isolate" width="256" height="256"><defs><filter id="a" width="270.648" height="254.338" x="-7.32" y="2.95" filterUnits="userSpaceOnUse"><feGaussianBlur xmlns="http://www.w3.org/2000/svg" in="SourceGraphic" stdDeviation="4.294"/><feOffset xmlns="http://www.w3.org/2000/svg" dy="4" result="pf_100_offsetBlur"/><feFlood xmlns="http://www.w3.org/2000/svg" flood-opacity=".4"/><feComposite xmlns="http://www.w3.org/2000/svg" in2="pf_100_offsetBlur" operator="in" result="pf_100_dropShadow"/><feBlend xmlns="http://www.w3.org/2000/svg" in="SourceGraphic" in2="pf_100_dropShadow"/></filter></defs><g filter="url(#a)"><linearGradient id="b" x1=".671" x2=".329" y1="-.003" y2=".936" gradientTransform="matrix(244.648 0 0 228.338 5.676 11.947)" gradientUnits="userSpaceOnUse"><stop offset="0%" stop-color="#9b33ae"/><stop offset="100%" stop-color="#e97cc8"/></linearGradient><path fill="url(#b)" d="M165.685 11.947c74.055 0 84.639 10.557 84.639 84.544v59.251c0 73.986-10.584 84.543-84.639 84.543h-75.37c-74.055 0-84.639-10.557-84.639-84.543V96.491c0-73.987 10.584-84.544 84.639-84.544h75.37z"/></g><path fill="#FFF" d="M5.676 126.116v29.626c0 73.986 10.584 84.543 84.639 84.543h75.37c74.055 0 84.639-10.557 84.639-84.543v-29.626H5.676z" opacity=".1"/><path fill="#FFF" d="M128 11.947v228.338h37.685c74.055 0 84.639-10.557 84.639-84.543V96.491c0-73.987-10.584-84.544-84.639-84.544H128z" opacity=".2"/><g opacity=".4"><linearGradient id="c" x1=".517" x2=".517" y2="1"><stop offset="0%" stop-color="#fff"/><stop offset="12.5%" stop-opacity=".098" stop-color="#fff"/><stop offset="92.5%" stop-opacity=".098"/><stop offset="100%" stop-opacity=".498"/></linearGradient><path fill="none" stroke="url(#c)" stroke-linecap="round" stroke-linejoin="round" stroke-width="4.077" d="M165.685 11.947c74.055 0 84.639 10.557 84.639 84.544v59.251c0 73.986-10.584 84.543-84.639 84.543h-75.37c-74.055 0-84.639-10.557-84.639-84.543V96.491c0-73.987 10.584-84.544 84.639-84.544h75.37z" vector-effect="non-scaling-stroke"/></g><defs><filter id="d" width="184.86" height="173.869" x="35.57" y="41.06" filterUnits="userSpaceOnUse"><feGaussianBlur xmlns="http://www.w3.org/2000/svg" stdDeviation="4.294"/></filter></defs><path d="M153.394 51.065c49.904 0 57.036 7.115 57.036 56.972v39.926c0 49.857-7.132 56.972-57.036 56.972h-50.788c-49.904 0-57.036-7.115-57.036-56.972v-39.926c0-49.857 7.132-56.972 57.036-56.972h50.788z" opacity=".4" filter="url(#d)"/><path fill="#D9D9D9" d="M153.394 51.065c49.904 0 57.036 7.115 57.036 56.972v39.926c0 49.857-7.132 56.972-57.036 56.972h-50.788c-49.904 0-57.036-7.115-57.036-56.972v-39.926c0-49.857 7.132-56.972 57.036-56.972h50.788z"/><defs><filter id="e" width="98.02" height="104.654" x="85.19" y="75.27" filterUnits="userSpaceOnUse"><feGaussianBlur xmlns="http://www.w3.org/2000/svg" stdDeviation="4.294"/></filter></defs><path fill="#111" d="M95.192 85.27v84.653s42.935-17.353 78.019-42.353c0-.008-.004-.011-.009-.023a.082.082 0 0 0-.016-.026l-.018-.027c-.005-.011-.009-.019-.009-.026-37.007-25.797-77.968-42.195-77.968-42.195l.001-.003z" opacity=".4" filter="url(#e)"/><path fill="#C43AC4" d="M95.192 85.27v84.653s42.935-17.353 78.019-42.353c0-.008-.004-.011-.009-.023a.082.082 0 0 0-.016-.026l-.018-.027c-.005-.011-.009-.019-.009-.026-37.007-25.797-77.968-42.195-77.968-42.195l.001-.003z"/><path fill="#FFF" d="M95.192 85.27v.705s40.683 16.281 77.562 41.916c.152-.108.305-.213.457-.321 0-.008-.004-.012-.009-.023a.068.068 0 0 0-.016-.026l-.018-.027c-.005-.011-.009-.019-.009-.026-37.006-25.797-77.968-42.194-77.968-42.194l.001-.004z"/></svg>

<svg xmlns="http://www.w3.org/2000/svg" style="isolation:isolate" width="256" height="256" viewBox="0 0 256 256">
 <defs>
  <filter id="u4ppoOfuyItH7VaHocf1ffj9Q2qBBwln" width="270.648" height="254.338" x="-7.32" y="2.95" filterUnits="userSpaceOnUse">
   <feGaussianBlur xmlns="http://www.w3.org/2000/svg" in="SourceGraphic" stdDeviation="4.294"/>
   <feOffset xmlns="http://www.w3.org/2000/svg" dx="0" dy="4" result="pf_100_offsetBlur"/>
   <feFlood xmlns="http://www.w3.org/2000/svg" flood-opacity=".4"/>
   <feComposite xmlns="http://www.w3.org/2000/svg" in2="pf_100_offsetBlur" operator="in" result="pf_100_dropShadow"/>
   <feBlend xmlns="http://www.w3.org/2000/svg" in="SourceGraphic" in2="pf_100_dropShadow" mode="normal"/>
  </filter>
 </defs>
 <g filter="url(#u4ppoOfuyItH7VaHocf1ffj9Q2qBBwln)">
  <linearGradient id="_lgradient_154" x1=".671" x2=".329" y1="-.003" y2=".936" gradientTransform="matrix(244.648,0,0,228.338,5.676,11.947)" gradientUnits="userSpaceOnUse">
   <stop offset="0%" style="stop-color:rgb(155,51,174)"/>
   <stop offset="100%" style="stop-color:rgb(233,124,200)"/>
  </linearGradient>
  <path fill="url(#_lgradient_154)" d="M 165.685 11.947 C 239.74 11.947 250.324 22.504 250.324 96.491 L 250.324 155.742 C 250.324 229.728 239.74 240.285 165.685 240.285 L 90.315 240.285 C 16.26 240.285 5.676 229.728 5.676 155.742 L 5.676 96.491 C 5.676 22.504 16.26 11.947 90.315 11.947 L 165.685 11.947 Z"/>
 </g>
 <g opacity=".1">
  <path fill="#FFFFFF" d="M 5.676 126.116 L 5.676 155.742 C 5.676 229.728 16.26 240.285 90.315 240.285 L 165.685 240.285 C 239.74 240.285 250.324 229.728 250.324 155.742 L 250.324 126.116 L 5.676 126.116 Z"/>
 </g>
 <g opacity=".2">
  <path fill="#FFFFFF" d="M 128 11.947 L 128 240.285 L 165.685 240.285 C 239.74 240.285 250.324 229.728 250.324 155.742 L 250.324 96.491 C 250.324 22.504 239.74 11.947 165.685 11.947 L 128 11.947 Z"/>
 </g>
 <g opacity=".4">
  <linearGradient id="_lgradient_155" x1=".517" x2=".517" y1="0" y2="1">
   <stop offset="0%" style="stop-color:rgb(255,255,255)"/>
   <stop offset="12.5%" stop-opacity=".098" style="stop-color:rgb(255,255,255)"/>
   <stop offset="92.5%" stop-opacity=".098" style="stop-color:rgb(0,0,0)"/>
   <stop offset="100%" stop-opacity=".498" style="stop-color:rgb(0,0,0)"/>
  </linearGradient>
  <path fill="none" stroke="url(#_lgradient_155)" stroke-linecap="round" stroke-linejoin="round" stroke-width="4.077" d="M 165.685 11.947 C 239.74 11.947 250.324 22.504 250.324 96.491 L 250.324 155.742 C 250.324 229.728 239.74 240.285 165.685 240.285 L 90.315 240.285 C 16.26 240.285 5.676 229.728 5.676 155.742 L 5.676 96.491 C 5.676 22.504 16.26 11.947 90.315 11.947 L 165.685 11.947 Z" vector-effect="non-scaling-stroke"/>
 </g>
 <g>
  <defs>
   <filter id="JepOzSGzdnCn86RFeJbS1vPSg2q2n3X8" width="184.86" height="173.869" x="35.57" y="41.06" filterUnits="userSpaceOnUse">
    <feGaussianBlur xmlns="http://www.w3.org/2000/svg" stdDeviation="4.294"/>
   </filter>
  </defs>
  <g opacity=".4" filter="url(#JepOzSGzdnCn86RFeJbS1vPSg2q2n3X8)">
   <path d="M 153.394 51.065 C 203.298 51.065 210.43 58.18 210.43 108.037 L 210.43 147.963 C 210.43 197.82 203.298 204.935 153.394 204.935 L 102.606 204.935 C 52.702 204.935 45.57 197.82 45.57 147.963 L 45.57 108.037 C 45.57 58.18 52.702 51.065 102.606 51.065 L 153.394 51.065 Z"/>
  </g>
  <path fill="#D9D9D9" d="M 153.394 51.065 C 203.298 51.065 210.43 58.18 210.43 108.037 L 210.43 147.963 C 210.43 197.82 203.298 204.935 153.394 204.935 L 102.606 204.935 C 52.702 204.935 45.57 197.82 45.57 147.963 L 45.57 108.037 C 45.57 58.18 52.702 51.065 102.606 51.065 L 153.394 51.065 Z"/>
  <defs>
   <filter id="j2fePxm6vzfhJExCBNyH6s25MvpRdD4l" width="98.02" height="104.654" x="85.19" y="75.27" filterUnits="userSpaceOnUse">
    <feGaussianBlur xmlns="http://www.w3.org/2000/svg" stdDeviation="4.294"/>
   </filter>
  </defs>
  <g opacity=".4" filter="url(#j2fePxm6vzfhJExCBNyH6s25MvpRdD4l)">
   <path fill="#111111" d="M 95.192 85.27 L 95.192 169.923 C 95.192 169.923 138.127 152.57 173.211 127.57 C 173.211 127.562 173.207 127.559 173.202 127.547 C 173.198 127.536 173.192 127.528 173.186 127.521 C 173.179 127.509 173.173 127.502 173.168 127.494 C 173.163 127.483 173.159 127.475 173.159 127.468 C 136.152 101.671 95.191 85.273 95.191 85.273 L 95.192 85.27 Z"/>
  </g>
  <path fill="#C43AC4" d="M 95.192 85.27 L 95.192 169.923 C 95.192 169.923 138.127 152.57 173.211 127.57 C 173.211 127.562 173.207 127.559 173.202 127.547 C 173.198 127.536 173.192 127.528 173.186 127.521 C 173.179 127.509 173.173 127.502 173.168 127.494 C 173.163 127.483 173.159 127.475 173.159 127.468 C 136.152 101.671 95.191 85.273 95.191 85.273 L 95.192 85.27 Z"/>
  <path fill="#FFFFFF" d="M 95.192 85.27 L 95.192 85.975 C 95.192 85.975 135.875 102.256 172.754 127.891 C 172.906 127.783 173.059 127.678 173.211 127.57 C 173.211 127.562 173.207 127.558 173.202 127.547 C 173.198 127.536 173.193 127.528 173.186 127.521 C 173.179 127.509 173.173 127.502 173.168 127.494 C 173.163 127.483 173.159 127.475 173.159 127.468 C 136.153 101.671 95.191 85.274 95.191 85.274 L 95.192 85.27 Z"/>
 </g>
</svg>
